images/Social Icons/Instagram.svg

<?xml version="1.0" encoding="UTF-8" standalone="no"?>
<!-- Created with Inkscape (http://www.inkscape.org/) -->

<svg
   xmlns:dc="http://purl.org/dc/elements/1.1/"
   xmlns:cc="http://creativecommons.org/ns#"
   xmlns:rdf="http://www.w3.org/1999/02/22-rdf-syntax-ns#"
   xmlns:svg="http://www.w3.org/2000/svg"
   xmlns="http://www.w3.org/2000/svg"
   version="1.1"
   width="1000"
   height="1000"
   id="svg2">
  <defs
     id="defs4">
    <clipPath
       id="clipPath3052">
      <path
         d="m 0.06,162.536 199.94,0 0,-162.476 -199.94,0 0,162.476 z"
         id="path3054" />
    </clipPath>
  </defs>
  <metadata
     id="metadata7">
    <rdf:RDF>
      <cc:Work
         rdf:about="">
        <dc:format>image/svg+xml</dc:format>
        <dc:type
           rdf:resource="http://purl.org/dc/dcmitype/StillImage" />
        <dc:title></dc:title>
      </cc:Work>
    </rdf:RDF>
  </metadata>
  <path
     d="M 500,-2 C 223.85763,-2 0,221.85763 0,498 0,774.14237 223.85763,998 500,998 776.14237,998 1000,774.14237 1000,498 1000,221.85763 776.14237,-2 500,-2 z m -237.25,160 478.84375,0 c 55.71598,0 100.59375,40.06583 100.59375,89.84375 l 0,500.3125 C 842.1875,797.93417 797.30973,838 741.59375,838 L 262.75,838 c -55.71598,0 -100.5625,-40.06583 -100.5625,-89.84375 l 0,-500.3125 C 162.1875,198.06583 207.03402,158 262.75,158 z m 414.71875,70.40625 c -12.52341,0 -22.625,10.07034 -22.625,22.59375 l 0,72.34375 c 0,12.52341 10.10159,22.59375 22.625,22.59375 l 72.34375,0 c 12.52341,0 22.59375,-10.07034 22.59375,-22.59375 l 0,-72.34375 c 0,-12.52341 -10.07034,-22.59375 -22.59375,-22.59375 l -72.34375,0 z M 616.3125,356.5 c 0.49616,0.35458 1.00723,0.7035 1.5,1.0625 l 0,-1.0625 -1.5,0 z M 500,370 c -82.84271,0 -150,67.15729 -150,150 0,82.84271 67.15729,150 150,150 82.84271,0 150,-67.15729 150,-150 0,-82.84271 -67.15729,-150 -150,-150 z M 200,426.3125 200,738 c 0,33.24 26.76,60 60,60 l 480,0 c 33.24,0 60,-26.76 60,-60 l 0,-305.34375 -119.59375,0 C 692.95099,458.77118 700,488.02849 700,518.9375 c 0,110.19977 -89.33148,199.53125 -199.53125,199.53125 -110.19977,0 -199.53125,-89.33148 -199.53125,-199.53125 0,-33.4363 8.24574,-64.94337 22.78125,-92.625 l -123.71875,0 z"
     id="path2986"
     style="fill:#009bcd;fill-opacity:1;stroke:none" />
</svg>

<?xml version="1.0" encoding="UTF-8" standalone="no"?>
<!-- Created with Inkscape (http://www.inkscape.org/) -->

<svg
   xmlns:dc="http://purl.org/dc/elements/1.1/"
   xmlns:cc="http://creativecommons.org/ns#"
   xmlns:rdf="http://www.w3.org/1999/02/22-rdf-syntax-ns#"
   xmlns:svg="http://www.w3.org/2000/svg"
   xmlns="http://www.w3.org/2000/svg"
   xmlns:sodipodi="http://sodipodi.sourceforge.net/DTD/sodipodi-0.dtd"
   xmlns:inkscape="http://www.inkscape.org/namespaces/inkscape"
   version="1.1"
   width="1000"
   height="1000"
   id="svg2"
   inkscape:version="0.48.2 r9819"
   sodipodi:docname="Instagram.svg">
  <sodipodi:namedview
     pagecolor="#ffffff"
     bordercolor="#666666"
     borderopacity="1"
     objecttolerance="10"
     gridtolerance="10"
     guidetolerance="10"
     inkscape:pageopacity="0"
     inkscape:pageshadow="2"
     inkscape:window-width="1201"
     inkscape:window-height="633"
     id="namedview9"
     showgrid="false"
     inkscape:zoom="0.3337544"
     inkscape:cx="729.44867"
     inkscape:cy="369.68226"
     inkscape:window-x="0"
     inkscape:window-y="0"
     inkscape:window-maximized="0"
     inkscape:current-layer="svg2">
    <inkscape:grid
       type="xygrid"
       id="grid4067" />
  </sodipodi:namedview>
  <defs
     id="defs4">
    <inkscape:perspective
       sodipodi:type="inkscape:persp3d"
       inkscape:vp_x="0 : 500 : 1"
       inkscape:vp_y="0 : 1000 : 0"
       inkscape:vp_z="1000 : 500 : 1"
       inkscape:persp3d-origin="500 : 333.33333 : 1"
       id="perspective4113" />
    <clipPath
       id="clipPath3052">
      <path
         d="m 0.06,162.536 199.94,0 0,-162.476 -199.94,0 0,162.476 z"
         id="path3054" />
    </clipPath>
  </defs>
  <metadata
     id="metadata7">
    <rdf:RDF>
      <cc:Work
         rdf:about="">
        <dc:format>image/svg+xml</dc:format>
        <dc:type
           rdf:resource="http://purl.org/dc/dcmitype/StillImage" />
        <dc:title />
      </cc:Work>
    </rdf:RDF>
  </metadata>
  <path
     style="fill:#009bcd;fill-opacity:1;stroke:none"
     d="M 500 -2 C 223.85763 -2 0 221.85763 0 498 C 0 774.14237 223.85763 998 500 998 C 776.14237 998 1000 774.14237 1000 498 C 1000 221.85763 776.14237 -2 500 -2 z M 262.75 158 L 741.59375 158 C 797.30973 158 842.1875 198.06583 842.1875 247.84375 L 842.1875 748.15625 C 842.1875 797.93417 797.30973 838 741.59375 838 L 262.75 838 C 207.03402 838 162.1875 797.93417 162.1875 748.15625 L 162.1875 247.84375 C 162.1875 198.06583 207.03402 158 262.75 158 z M 260 198 C 226.76 198 200 224.76 200 258 L 200 369.375 L 368.40625 369.375 C 403.59035 338.28664 449.82498 319.40625 500.46875 319.40625 C 554.47361 319.40625 603.45143 340.86844 639.375 375.71875 L 800 375.71875 L 800 258 C 800 224.76 773.24 198 740 198 L 260 198 z M 676.9375 230 L 748.0625 230 C 760.21245 230 770 239.78755 770 251.9375 L 770 323.0625 C 770 335.21245 760.21245 345 748.0625 345 L 676.9375 345 C 664.78755 345 655 335.21245 655 323.0625 L 655 251.9375 C 655 239.78755 664.78755 230 676.9375 230 z M 500 370 C 417.15729 370 350 437.15729 350 520 C 350 602.84271 417.15729 670 500 670 C 582.84271 670 650 602.84271 650 520 C 650 437.15729 582.84271 370 500 370 z M 200 426.3125 L 200 738 C 200 771.24 226.76 798 260 798 L 740 798 C 773.24 798 800 771.24 800 738 L 800 432.65625 L 680.40625 432.65625 C 692.95099 458.77118 700 488.02849 700 518.9375 C 700 629.13727 610.66852 718.46875 500.46875 718.46875 C 390.26898 718.46875 300.9375 629.13727 300.9375 518.9375 C 300.9375 485.5012 309.18324 453.99413 323.71875 426.3125 L 200 426.3125 z "
     id="path2986" />
</svg>
